; generated by Slic3r 1.3.0 on 2026-01-02 at 14:36:02

; external perimeters extrusion width = 0.55mm (7.28mm^3/s)
; perimeters extrusion width = 0.70mm (11.44mm^3/s)
; infill extrusion width = 0.63mm (13.45mm^3/s)
; solid infill extrusion width = 0.70mm (3.81mm^3/s)
; top infill extrusion width = 0.70mm (2.86mm^3/s)

M107
M104 S200 ; set temperature
G28 ; home all axes
G1 Z5 F5000 ; lift nozzle

; Filament gcode

M109 S200 ; set temperature and wait for it to be reached
G21 ; set units to millimeters
G90 ; use absolute coordinates
M82 ; use absolute distances for extrusion
G92 E0
G1 Z0.350 F7800.000
G1 E-2.00000 F2400.00000
G92 E0
G1 X79.229 Y77.353 F7800.000
G1 E2.00000 F2400.00000
G1 F1800
G1 X80.979 Y75.888 E2.06340
G1 X84.250 Y75.015 E2.15744
G1 X115.750 Y75.015 E3.03244
G1 X117.997 Y75.412 E3.09583
G1 X119.973 Y76.555 E3.15923
G1 X121.438 Y78.305 E3.22263
G1 X122.311 Y81.576 E3.31667
G1 X122.311 Y112.282 E4.16961
G1 X121.914 Y114.529 E4.23301
G1 X120.771 Y116.505 E4.29640
G1 X119.021 Y117.970 E4.35980
G1 X115.750 Y118.843 E4.45384
G1 X84.250 Y118.843 E5.32884
G1 X82.003 Y118.446 E5.39224
G1 X80.027 Y117.303 E5.45563
G1 X78.562 Y115.553 E5.51903
G1 X77.689 Y112.282 E5.61307
G1 X77.689 Y81.576 E6.46601
G1 X78.086 Y79.329 E6.52941
G1 X79.191 Y77.418 E6.59072
G1 E4.59072 F2400.00000
G92 E0
G1 X114.396 Y110.928 F7800.000
G1 E2.00000 F2400.00000
G1 F1800
G1 X85.604 Y110.928 E2.79978
G1 X85.604 Y82.930 E3.57751
G1 X114.396 Y82.930 E4.37729
G1 X114.396 Y110.853 E5.15293
G1 X114.957 Y111.489 F7800.000
G1 F1800
G1 X85.043 Y111.489 E5.98388
G1 X85.043 Y82.369 E6.79277
G1 X114.957 Y82.369 E7.62372
G1 X114.957 Y111.414 E8.43052
G1 X115.475 Y112.007 F7800.000
G1 F1800
G1 X84.525 Y112.007 E9.15829
G1 X84.525 Y81.851 E9.86738
G1 X115.475 Y81.851 E10.59514
G1 X115.475 Y111.932 E11.30246
G1 X114.991 Y111.880 F7800.000
G1 E9.30246 F2400.00000
G92 E0
G1 X113.617 Y110.585 F7800.000
G1 E2.00000 F2400.00000
G1 F1800
G1 X114.053 Y110.149 E2.01734
G1 X114.053 Y109.347 E2.03987
G1 X112.815 Y110.585 E2.08906
G1 X112.012 Y110.585 E2.11159
G1 X114.053 Y108.544 E2.19265
G1 X114.053 Y107.742 E2.21517
G1 X111.210 Y110.585 E2.32809
G1 X110.408 Y110.585 E2.35062
G1 X114.053 Y106.940 E2.49539
G1 X114.053 Y106.138 E2.51792
G1 X109.606 Y110.585 E2.69456
G1 X108.804 Y110.585 E2.71709
G1 X114.053 Y105.336 E2.92558
G1 X114.053 Y104.534 E2.94811
G1 X108.002 Y110.585 E3.18847
G1 X107.200 Y110.585 E3.21099
G1 X114.053 Y103.732 E3.48321
G1 X114.053 Y102.929 E3.50574
G1 X106.397 Y110.585 E3.80981
G1 X105.595 Y110.585 E3.83234
G1 X114.053 Y102.127 E4.16827
G1 X114.053 Y101.325 E4.19080
G1 X104.793 Y110.585 E4.55860
G1 X103.991 Y110.585 E4.58113
G1 X114.053 Y100.523 E4.98078
G1 X114.053 Y99.721 E5.00331
G1 X103.189 Y110.585 E5.43482
G1 X102.387 Y110.585 E5.45735
G1 X114.053 Y98.919 E5.92072
G1 X114.053 Y98.117 E5.94325
G1 X101.585 Y110.585 E6.43848
G1 X100.782 Y110.585 E6.46101
G1 X114.053 Y97.314 E6.98811
G1 X114.053 Y96.512 E7.01063
G1 X99.980 Y110.585 E7.56959
G1 X99.178 Y110.585 E7.59212
G1 X114.053 Y95.710 E8.18293
G1 X114.053 Y94.908 E8.20546
G1 X98.376 Y110.585 E8.82813
G1 X97.574 Y110.585 E8.85066
G1 X114.053 Y94.106 E9.50519
G1 X114.053 Y93.304 E9.52772
G1 X96.772 Y110.585 E10.21411
G1 X95.970 Y110.585 E10.23664
G1 X114.053 Y92.502 E10.95489
G1 X114.053 Y91.699 E10.97742
G1 X95.167 Y110.585 E11.72753
G1 X94.365 Y110.585 E11.75006
G1 X114.053 Y90.897 E12.53203
G1 X114.053 Y90.095 E12.55456
G1 X93.563 Y110.585 E13.36839
G1 X92.761 Y110.585 E13.39092
G1 X114.053 Y89.293 E14.23661
G1 X114.053 Y88.491 E14.25914
G1 X91.959 Y110.585 E15.13669
G1 X91.157 Y110.585 E15.15921
G1 X114.053 Y87.689 E16.06862
G1 X114.053 Y86.887 E16.09115
G1 X90.355 Y110.585 E17.03242
G1 X89.552 Y110.585 E17.05495
G1 X114.053 Y86.084 E18.02808
G1 X114.053 Y85.282 E18.05061
G1 X88.750 Y110.585 E19.05560
G1 X87.948 Y110.585 E19.07813
G1 X114.053 Y84.480 E20.11498
G1 X114.053 Y83.678 E20.13751
G1 X87.146 Y110.585 E21.20621
G1 X86.344 Y110.585 E21.22874
G1 X113.656 Y83.273 E22.31355
G1 X112.854 Y83.273 E22.33607
G1 X85.947 Y110.180 E23.40479
G1 X85.947 Y109.378 E23.42731
G1 X112.052 Y83.273 E24.46417
G1 X111.250 Y83.273 E24.48670
G1 X85.947 Y108.576 E25.49169
G1 X85.947 Y107.774 E25.51422
G1 X110.448 Y83.273 E26.48735
G1 X109.646 Y83.273 E26.50988
G1 X85.947 Y106.972 E27.45115
G1 X85.947 Y106.169 E27.47368
G1 X108.843 Y83.273 E28.38310
G1 X108.041 Y83.273 E28.40562
G1 X85.947 Y105.367 E29.28318
G1 X85.947 Y104.565 E29.30571
G1 X107.239 Y83.273 E30.15140
G1 X106.437 Y83.273 E30.17393
G1 X85.947 Y103.763 E30.98776
G1 X85.947 Y102.961 E31.01029
G1 X105.635 Y83.273 E31.79227
G1 X104.833 Y83.273 E31.81479
G1 X85.947 Y102.159 E32.56491
G1 X85.947 Y101.357 E32.58744
G1 X104.031 Y83.273 E33.30569
G1 X103.228 Y83.273 E33.32822
G1 X85.947 Y100.554 E34.01462
G1 X85.947 Y99.752 E34.03715
G1 X102.426 Y83.273 E34.69168
G1 X101.624 Y83.273 E34.71421
G1 X85.947 Y98.950 E35.33689
G1 X85.947 Y98.148 E35.35941
G1 X100.822 Y83.273 E35.95023
G1 X100.020 Y83.273 E35.97276
G1 X85.947 Y97.346 E36.53172
G1 X85.947 Y96.544 E36.55424
G1 X99.218 Y83.273 E37.08134
G1 X98.416 Y83.273 E37.10387
G1 X85.947 Y95.742 E37.59911
G1 X85.947 Y94.939 E37.62163
G1 X97.613 Y83.273 E38.08501
G1 X96.811 Y83.273 E38.10754
G1 X85.947 Y94.137 E38.53906
G1 X85.947 Y93.335 E38.56159
G1 X96.009 Y83.273 E38.96124
G1 X95.207 Y83.273 E38.98377
G1 X85.947 Y92.533 E39.35157
G1 X85.947 Y91.731 E39.37410
G1 X94.405 Y83.273 E39.71004
G1 X93.603 Y83.273 E39.73256
G1 X85.947 Y90.929 E40.03664
G1 X85.947 Y90.126 E40.05917
G1 X92.801 Y83.273 E40.33139
G1 X91.998 Y83.273 E40.35392
G1 X85.947 Y89.324 E40.59428
G1 X85.947 Y88.522 E40.61680
G1 X91.196 Y83.273 E40.82530
G1 X90.394 Y83.273 E40.84783
G1 X85.947 Y87.720 E41.02447
G1 X85.947 Y86.918 E41.04700
G1 X89.592 Y83.273 E41.19178
G1 X88.790 Y83.273 E41.21431
G1 X85.947 Y86.116 E41.32723
G1 X85.947 Y85.314 E41.34976
G1 X87.988 Y83.273 E41.43082
G1 X87.185 Y83.273 E41.45334
G1 X85.947 Y84.511 E41.50254
G1 X85.947 Y83.709 E41.52507
G1 X86.383 Y83.273 E41.54241
G1 Z0.650 F7800.000
G1 E39.54241 F2400.00000
G92 E0
G1 X114.279 Y110.811 F7800.000
G1 E2.00000 F2400.00000
G1 F3600
G1 X85.721 Y110.811 E2.77038
G1 X85.721 Y83.047 E3.51935
G1 X114.279 Y83.047 E4.28973
G1 X114.279 Y110.736 E5.03667
G1 X114.914 Y111.446 F7800.000
G1 F3600
G1 X85.086 Y111.446 E5.84135
G1 X85.086 Y82.412 E6.62460
G1 X114.914 Y82.412 E7.42928
G1 X114.914 Y111.371 E8.21051
G1 X115.475 Y112.007 F7800.000
G1 F3000
G1 X84.525 Y112.007 E8.84840
G1 X84.525 Y81.851 E9.46993
G1 X115.475 Y81.851 E10.10782
G1 X115.475 Y111.932 E10.72780
G1 X114.991 Y111.880 F7800.000
G1 E8.72780 F2400.00000
G92 E0
G1 X113.890 Y83.930 F7800.000
G1 E2.00000 F2400.00000
G1 F1200
G1 X113.396 Y83.436 E2.01913
G1 X112.484 Y83.436 E2.04406
G1 X113.890 Y84.842 E2.09846
G1 X113.890 Y85.753 E2.12339
G1 X111.573 Y83.436 E2.21304
G1 X110.661 Y83.436 E2.23798
G1 X113.890 Y86.665 E2.36289
G1 X113.890 Y87.576 E2.38783
G1 X109.750 Y83.436 E2.54800
G1 X108.838 Y83.436 E2.57294
G1 X113.890 Y88.488 E2.76838
G1 X113.890 Y89.399 E2.79331
G1 X107.927 Y83.436 E3.02401
G1 X107.015 Y83.436 E3.04894
G1 X113.890 Y90.311 E3.31490
G1 X113.890 Y91.222 E3.33984
G1 X106.104 Y83.436 E3.64106
G1 X105.192 Y83.436 E3.66599
G1 X113.890 Y92.134 E4.00248
G1 X113.890 Y93.045 E4.02741
G1 X104.281 Y83.436 E4.39916
G1 X103.369 Y83.436 E4.42409
G1 X113.890 Y93.957 E4.83110
G1 X113.890 Y94.868 E4.85603
G1 X102.458 Y83.436 E5.29830
G1 X101.546 Y83.436 E5.32323
G1 X113.890 Y95.780 E5.80076
G1 X113.890 Y96.691 E5.82570
G1 X100.635 Y83.436 E6.33849
G1 X99.723 Y83.436 E6.36342
G1 X113.890 Y97.603 E6.91147
G1 X113.890 Y98.514 E6.93641
G1 X98.812 Y83.436 E7.51972
G1 X97.900 Y83.436 E7.54465
G1 X113.890 Y99.426 E8.16323
G1 X113.890 Y100.337 E8.18816
G1 X96.989 Y83.436 E8.84200
G1 X96.077 Y83.436 E8.86693
G1 X113.890 Y101.249 E9.55603
G1 X113.890 Y102.160 E9.58096
G1 X95.166 Y83.436 E10.30532
G1 X94.254 Y83.436 E10.33026
G1 X113.890 Y103.072 E11.08988
G1 X113.890 Y103.983 E11.11481
G1 X93.343 Y83.436 E11.90969
G1 X92.431 Y83.436 E11.93463
G1 X113.890 Y104.895 E12.76477
G1 X113.890 Y105.806 E12.78971
G1 X91.520 Y83.436 E13.65511
G1 X90.608 Y83.436 E13.68004
G1 X113.890 Y106.718 E14.58071
G1 X113.890 Y107.629 E14.60564
G1 X89.697 Y83.436 E15.54157
G1 X88.785 Y83.436 E15.56651
G1 X113.890 Y108.541 E16.53770
G1 X113.890 Y109.452 E16.56263
G1 X87.874 Y83.436 E17.56908
G1 X86.962 Y83.436 E17.59401
G1 X113.890 Y110.364 E18.63573
G1 X113.890 Y110.422 E18.63733
G1 X113.038 Y110.422 E18.66066
G1 X86.110 Y83.494 E19.70237
G1 X86.110 Y84.406 E19.72731
G1 X112.126 Y110.422 E20.73376
G1 X111.215 Y110.422 E20.75869
G1 X86.110 Y85.317 E21.72988
G1 X86.110 Y86.229 E21.75482
G1 X110.303 Y110.422 E22.69075
G1 X109.392 Y110.422 E22.71568
G1 X86.110 Y87.140 E23.61635
G1 X86.110 Y88.052 E23.64128
G1 X108.480 Y110.422 E24.50669
G1 X107.569 Y110.422 E24.53162
G1 X86.110 Y88.963 E25.36176
G1 X86.110 Y89.875 E25.38670
G1 X106.657 Y110.422 E26.18158
G1 X105.746 Y110.422 E26.20651
G1 X86.110 Y90.786 E26.96614
G1 X86.110 Y91.698 E26.99107
G1 X104.834 Y110.422 E27.71543
G1 X103.923 Y110.422 E27.74036
G1 X86.110 Y92.609 E28.42946
G1 X86.110 Y93.521 E28.45440
G1 X103.011 Y110.422 E29.10823
G1 X102.100 Y110.422 E29.13317
G1 X86.110 Y94.432 E29.75174
G1 X86.110 Y95.344 E29.77668
G1 X101.188 Y110.422 E30.35999
G1 X100.277 Y110.422 E30.38493
G1 X86.110 Y96.255 E30.93298
G1 X86.110 Y97.167 E30.95791
G1 X99.365 Y110.422 E31.47071
G1 X98.454 Y110.422 E31.49564
G1 X86.110 Y98.078 E31.97317
G1 X86.110 Y98.990 E31.99810
G1 X97.542 Y110.422 E32.44037
G1 X96.631 Y110.422 E32.46531
G1 X86.110 Y99.901 E32.87231
G1 X86.110 Y100.813 E32.89725
G1 X95.719 Y110.422 E33.26899
G1 X94.808 Y110.422 E33.29393
G1 X86.110 Y101.724 E33.63041
G1 X86.110 Y102.636 E33.65535
G1 X93.896 Y110.422 E33.95657
G1 X92.985 Y110.422 E33.98150
G1 X86.110 Y103.547 E34.24746
G1 X86.110 Y104.459 E34.27240
G1 X92.073 Y110.422 E34.50310
G1 X91.162 Y110.422 E34.52803
G1 X86.110 Y105.370 E34.72347
G1 X86.110 Y106.282 E34.74841
G1 X90.250 Y110.422 E34.90858
G1 X89.339 Y110.422 E34.93352
G1 X86.110 Y107.193 E35.05843
G1 X86.110 Y108.105 E35.08337
G1 X88.427 Y110.422 E35.17302
G1 X87.516 Y110.422 E35.19796
G1 X86.110 Y109.016 E35.25235
G1 X86.110 Y109.928 E35.27728
G1 X86.604 Y110.422 E35.29641
G1 Z0.950 F7800.000
G1 E33.29641 F2400.00000
G92 E0
G1 X114.279 Y110.811 F7800.000
G1 E2.00000 F2400.00000
G1 F3600
G1 X85.721 Y110.811 E2.77038
G1 X85.721 Y83.047 E3.51935
G1 X114.279 Y83.047 E4.28973
G1 X114.279 Y110.736 E5.03667
G1 X114.914 Y111.446 F7800.000
G1 F3600
G1 X85.086 Y111.446 E5.84135
G1 X85.086 Y82.412 E6.62460
G1 X114.914 Y82.412 E7.42928
G1 X114.914 Y111.371 E8.21051
G1 X115.475 Y112.007 F7800.000
G1 F3000
G1 X84.525 Y112.007 E8.84840
G1 X84.525 Y81.851 E9.46993
G1 X115.475 Y81.851 E10.10782
G1 X115.475 Y111.932 E10.72780
G1 X114.991 Y111.880 F7800.000
G1 E8.72780 F2400.00000
G92 E0
G1 X113.396 Y110.422 F7800.000
G1 E2.00000 F2400.00000
G1 F1200
G1 X113.890 Y109.928 E2.01913
G1 X113.890 Y109.016 E2.04406
G1 X112.484 Y110.422 E2.09846
G1 X111.573 Y110.422 E2.12339
G1 X113.890 Y108.105 E2.21305
G1 X113.890 Y107.193 E2.23798
G1 X110.661 Y110.422 E2.36289
G1 X109.750 Y110.422 E2.38783
G1 X113.890 Y106.282 E2.54800
G1 X113.890 Y105.370 E2.57294
G1 X108.838 Y110.422 E2.76838
G1 X107.927 Y110.422 E2.79331
G1 X113.890 Y104.459 E3.02401
G1 X113.890 Y103.547 E3.04894
G1 X107.015 Y110.422 E3.31490
G1 X106.104 Y110.422 E3.33984
G1 X113.890 Y102.636 E3.64106
G1 X113.890 Y101.724 E3.66599
G1 X105.192 Y110.422 E4.00248
G1 X104.281 Y110.422 E4.02741
G1 X113.890 Y100.813 E4.39916
G1 X113.890 Y99.901 E4.42409
G1 X103.369 Y110.422 E4.83110
G1 X102.458 Y110.422 E4.85603
G1 X113.890 Y98.990 E5.29830
G1 X113.890 Y98.078 E5.32323
G1 X101.546 Y110.422 E5.80076
G1 X100.635 Y110.422 E5.82570
G1 X113.890 Y97.167 E6.33849
G1 X113.890 Y96.255 E6.36342
G1 X99.723 Y110.422 E6.91147
G1 X98.812 Y110.422 E6.93641
G1 X113.890 Y95.344 E7.51972
G1 X113.890 Y94.432 E7.54465
G1 X97.900 Y110.422 E8.16323
G1 X96.989 Y110.422 E8.18816
G1 X113.890 Y93.521 E8.84200
G1 X113.890 Y92.609 E8.86693
G1 X96.077 Y110.422 E9.55603
G1 X95.166 Y110.422 E9.58096
G1 X113.890 Y91.698 E10.30532
G1 X113.890 Y90.786 E10.33026
G1 X94.254 Y110.422 E11.08988
G1 X93.343 Y110.422 E11.11481
G1 X113.890 Y89.875 E11.90969
G1 X113.890 Y88.963 E11.93463
G1 X92.431 Y110.422 E12.76477
G1 X91.520 Y110.422 E12.78971
G1 X113.890 Y88.052 E13.65511
G1 X113.890 Y87.140 E13.68004
G1 X90.608 Y110.422 E14.58071
G1 X89.697 Y110.422 E14.60564
G1 X113.890 Y86.229 E15.54157
G1 X113.890 Y85.317 E15.56651
G1 X88.785 Y110.422 E16.53770
G1 X87.874 Y110.422 E16.56263
G1 X113.890 Y84.406 E17.56908
G1 X113.890 Y83.494 E17.59401
G1 X86.962 Y110.422 E18.63573
G1 X86.110 Y110.422 E18.65905
G1 X86.110 Y110.364 E18.66066
G1 X113.038 Y83.436 E19.70237
G1 X112.126 Y83.436 E19.72731
G1 X86.110 Y109.452 E20.73376
G1 X86.110 Y108.541 E20.75869
G1 X111.215 Y83.436 E21.72988
G1 X110.303 Y83.436 E21.75481
G1 X86.110 Y107.629 E22.69074
G1 X86.110 Y106.718 E22.71568
G1 X109.392 Y83.436 E23.61634
G1 X108.480 Y83.436 E23.64128
G1 X86.110 Y105.806 E24.50668
G1 X86.110 Y104.895 E24.53162
G1 X107.569 Y83.436 E25.36176
G1 X106.657 Y83.436 E25.38670
G1 X86.110 Y103.983 E26.18158
G1 X86.110 Y103.072 E26.20651
G1 X105.746 Y83.436 E26.96613
G1 X104.834 Y83.436 E26.99107
G1 X86.110 Y102.160 E27.71543
G1 X86.110 Y101.249 E27.74036
G1 X103.923 Y83.436 E28.42946
G1 X103.011 Y83.436 E28.45439
G1 X86.110 Y100.337 E29.10823
G1 X86.110 Y99.426 E29.13317
G1 X102.100 Y83.436 E29.75174
G1 X101.188 Y83.436 E29.77668
G1 X86.110 Y98.514 E30.35999
G1 X86.110 Y97.603 E30.38492
G1 X100.277 Y83.436 E30.93298
G1 X99.365 Y83.436 E30.95791
G1 X86.110 Y96.691 E31.47070
G1 X86.110 Y95.780 E31.49564
G1 X98.454 Y83.436 E31.97317
G1 X97.542 Y83.436 E31.99810
G1 X86.110 Y94.868 E32.44037
G1 X86.110 Y93.957 E32.46530
G1 X96.631 Y83.436 E32.87231
G1 X95.719 Y83.436 E32.89724
G1 X86.110 Y93.045 E33.26899
G1 X86.110 Y92.134 E33.29392
G1 X94.808 Y83.436 E33.63041
G1 X93.896 Y83.436 E33.65534
G1 X86.110 Y91.222 E33.95657
G1 X86.110 Y90.311 E33.98150
G1 X92.985 Y83.436 E34.24746
G1 X92.073 Y83.436 E34.27239
G1 X86.110 Y89.399 E34.50309
G1 X86.110 Y88.488 E34.52803
G1 X91.162 Y83.436 E34.72347
G1 X90.250 Y83.436 E34.74840
G1 X86.110 Y87.576 E34.90858
G1 X86.110 Y86.665 E34.93351
G1 X89.339 Y83.436 E35.05843
G1 X88.427 Y83.436 E35.08336
G1 X86.110 Y85.753 E35.17302
G1 X86.110 Y84.842 E35.19795
G1 X87.516 Y83.436 E35.25234
G1 X86.604 Y83.436 E35.27728
G1 X86.110 Y83.930 E35.29640
M106 S237.15
G1 Z1.250 F7800.000
G1 E33.29640 F2400.00000
G92 E0
G1 X114.279 Y110.811 F7800.000
G1 E2.00000 F2400.00000
G1 F3600
G1 X85.721 Y110.811 E2.77038
G1 X85.721 Y83.047 E3.51935
G1 X114.279 Y83.047 E4.28973
G1 X114.279 Y110.736 E5.03667
G1 X114.914 Y111.446 F7800.000
G1 F3600
G1 X85.086 Y111.446 E5.84135
G1 X85.086 Y82.412 E6.62460
G1 X114.914 Y82.412 E7.42928
G1 X114.914 Y111.371 E8.21051
G1 X115.475 Y112.007 F7800.000
G1 F3000
G1 X84.525 Y112.007 E8.84840
G1 X84.525 Y81.851 E9.46993
G1 X115.475 Y81.851 E10.10782
G1 X115.475 Y111.932 E10.72780
G1 X114.991 Y111.880 F7800.000
G1 E8.72780 F2400.00000
G92 E0
G1 X113.998 Y109.308 F7800.000
G1 E2.00000 F2400.00000
G1 F4800
G1 X110.305 Y110.298 E2.09099
G1 E0.09099 F2400.00000
G92 E0
G1 X105.884 Y110.530 F7800.000
G1 E2.00000 F2400.00000
G1 F4800
G1 X113.173 Y83.328 E2.67008
G1 X112.618 Y83.560 F7800.000
G1 F4800
G1 X86.002 Y90.692 E3.32571
G1 E1.32571 F2400.00000
G92 E0
G1 X86.234 Y86.393 F7800.000
G1 E2.00000 F2400.00000
G1 F4800
